X:1
T:Clansmen's Quickstep, The
T:Clansmen's Quickstep, The
T:Alexander Walker
C:Alexander Walker
L:1/8
M:2/2
K:C
V:1 treble 
V:1
 [Ac] | E>A c/B/A/G/ | (A2 B>)B | e>(Ac>)(A | d>)(GB>)G | A,>CB,>D | E/F/G/F/ E/D/C/B, c<A,A, :| %7
 g | aA c/B/A/^G/ | A>EC>A, | g>G B/c/d/B/ | G/A/B/c/ d<B | a>A c/B/A/^G/ | A>EC>A, | %14
 E/F/G/F/ E/D/C/B, | C<A, A,>^g | a>A c/B/A/^G/ | A/=G/F/E/ D/C/B,/A,/ | G>g B/c/d/B/ | %19
 G/A/B/c/ d<B | A>c B/c/d/B/ | c>de<a | (e/^f/)g/=f/ (e/d/)c/B/ | c<AA || %24

